assets/milanote/mono.svg

<svg viewBox="0 0 24 24" xmlns="http://www.w3.org/2000/svg"><path d="m12 0c6.627 0 12 5.373 12 12s-5.373 12-12 12-12-5.373-12-12 5.373-12 12-12zm0 12.943 3.057 3.057h-6.114zm4-4v6.114l-3.057-3.057zm-8 6.114v-6.114l3.057 3.057zm8.917 2.227a.665.665 0 0 0 .367-.367l-.003.009a.665.665 0 0 0 .052-.26v-9.332a.667.667 0 0 0 -1.138-.471l-4.195 4.194-4.195-4.195a.667.667 0 0 0 -1.138.471v9.334a.667.667 0 0 0 .666.666h9.334c.092 0 .18-.018.26-.052l-.01.004z"/></svg>

<svg xmlns="http://www.w3.org/2000/svg" viewBox="0 0 24 24"><path d="M12 0c6.627 0 12 5.373 12 12s-5.373 12-12 12S0 18.627 0 12 5.373 0 12 0m0 12.943L15.057 16H8.943zm4-4v6.114L12.943 12zm-8 6.114V8.943L11.057 12zm8.917 2.227a.67.67 0 0 0 .367-.367l-.003.009a.7.7 0 0 0 .052-.26V7.334a.667.667 0 0 0-1.138-.471L12 11.057 7.805 6.862a.667.667 0 0 0-1.138.471v9.334a.667.667 0 0 0 .666.666h9.334q.139 0 .26-.052z"/></svg>
